X: 1
T:The Soutars of Cromarty  "CYMRU"
M:6/8
L:1/8
Q:80
C:P/M G.S. MacLennan
S:March
K:HP
|: g3/4f/4|
{g}e3/2f/4e{gef}e3/2d/2B|
{Gdc}d3/2e/2g{Bd}B3/2{g}A/2{d}B|  !
{g}G3/2{d}G/2{e}G{gBd}B3/2{g}A/2{d}G|
{Gdc}d3{c}d3/2g/2f| |
{g}e3/2f/4e{gef}e3/2d/2B|  !
{Gdc}d3/2e/2g{Bd}B3/2{g}A/2{d}G|
{g}A2{GdGe}A{g}A3/2B/2d|
{gef}e3{A}e2:| |:  !
g3/4e/4|
{Gdc}d3/2{g}B/2d{g}e3/2f/2g|
a3/2g/2f{g}e3/2f/2g|  !
{a}B3/2c/2d{gdc}d3/2e/2{g}B|
{Gdc}d3{c}dg/2e| |
{Gdc}d3/2{g}B/2d{g}e3/2f/2g|  !
a3/2g/2f{g}e3/2f/2g|
{a}B2{GdGe}A{g}A3/2B/2d|
{gef}e3{A}e2:| |:  !
g3/4f/4|
{gef}e2d{gBd}B3/2{g}A/2{d}G|
{g}B3/2d/2A{gBd}B3/2{g}A/2{d}G|  !
{g}A3/2{d}A/2{e}A{gBd}B3/2{g}A/2{d}B|
{Gdc}d3{c}d3/2g/2f| |
{gef}e2d{gBd}B3/2{g}A/2{d}G|  !
{g}B/2d3/2A{gBd}B3/2{g}A/2{d}G|
{g}A2{GdGe}A{g}A3/2B/2d|
{gef}e3{A}e2:| |:  !
g3/4e/4|
{Gdc}d3/2e/2f{gf}g2a|
g3/2f/2e{g}e3/2f/2g|  !
{Bd}B3/2{g}A/2{d}G{Gdc}d3/2e/2{g}B|
{Gdc}d3{c}d3/2g/2e| |
{Gdc}d3/2e/2f{gf}g2a|  !
g3/2f/2e{g}e3/2f/2g|
{a}B2{GdGe}A{g}A3/2B/2d|
{gef}e3{A}e2:|  !
